src/assets/outline/Export2.svg

<svg width="24" height="24" viewBox="0 0 24 24"  xmlns="http://www.w3.org/2000/svg">
<path d="M12 22.75C6.07 22.75 1.25 17.93 1.25 12C1.25 6.07 6.07 1.25 12 1.25C12.41 1.25 12.75 1.59 12.75 2C12.75 2.41 12.41 2.75 12 2.75C6.9 2.75 2.75 6.9 2.75 12C2.75 17.1 6.9 21.25 12 21.25C17.1 21.25 21.25 17.1 21.25 12C21.25 11.59 21.59 11.25 22 11.25C22.41 11.25 22.75 11.59 22.75 12C22.75 17.93 17.93 22.75 12 22.75Z" />
<path d="M12.9999 11.7502C12.8099 11.7502 12.6199 11.6802 12.4699 11.5302C12.1799 11.2402 12.1799 10.7602 12.4699 10.4702L20.6699 2.27023C20.9599 1.98023 21.4399 1.98023 21.7299 2.27023C22.0199 2.56023 22.0199 3.04023 21.7299 3.33023L13.5299 11.5302C13.3799 11.6802 13.1899 11.7502 12.9999 11.7502Z" />
<path d="M21.9999 7.58C21.5899 7.58 21.2499 7.24 21.2499 6.83V2.75H17.1699C16.7599 2.75 16.4199 2.41 16.4199 2C16.4199 1.59 16.7599 1.25 17.1699 1.25H21.9999C22.4099 1.25 22.7499 1.59 22.7499 2V6.83C22.7499 7.24 22.4099 7.58 21.9999 7.58Z" />
</svg>

<?xml version="1.0" encoding="UTF-8"?>
<svg width="24" height="24" viewBox="0 0 24 24" xmlns="http://www.w3.org/2000/svg">
 <path d="m12 22.75c-5.93 0-10.75-4.82-10.75-10.75s4.82-10.75 10.75-10.75c0.41 0 0.75 0.34 0.75 0.75s-0.34 0.75-0.75 0.75c-5.1 0-9.25 4.15-9.25 9.25s4.15 9.25 9.25 9.25 9.25-4.15 9.25-9.25c0-0.41 0.34-0.75 0.75-0.75s0.75 0.34 0.75 0.75c0 5.93-4.82 10.75-10.75 10.75z"/>
 <path d="m13 11.75c-0.19 0-0.38-0.07-0.53-0.22-0.29-0.29-0.29-0.77 0-1.06l8.2-8.2c0.29-0.29 0.77-0.29 1.06 0s0.29 0.77 0 1.06l-8.2 8.2c-0.15 0.15-0.34 0.22-0.53 0.22z"/>
 <path d="m22 7.58c-0.41 0-0.75-0.34-0.75-0.75v-4.08h-4.08c-0.41 0-0.75-0.34-0.75-0.75s0.34-0.75 0.75-0.75h4.83c0.41 0 0.75 0.34 0.75 0.75v4.83c0 0.41-0.34 0.75-0.75 0.75z"/>
</svg>
